X:1
T:James Gibb editions
T:Pueri concinite - Handl
T:#
%%score [ 1 2 3 4 ]
L:1/8
Q:1/4=108
M:4/4
K:C
V:1 treble nm="Alto I" snm="A I"
V:2 treble nm="Alto II" snm="A II"
V:3 treble-8 nm="Tenor" snm="T"
V:4 bass nm="Bass" snm="B"
V:1
"^Pueri concinite" G6 E2 | E2 C2 (CDEF | GFED E2) C2 | C2 G2 (AGAB | %4
w: Pu- e-|ri, con- ci\- * * *|* * * * * ni-|te, con- ci\- * * *|
 cBA"^Jacob Handl\n(1550-91)"G F2 ED |[M:4/4] EDCB, CDFG | AG G4) ^F2 | G4 z2 G2 | A2 _B2 G4 | %9
w: ||* * * ni-|te, Na-|to re- gi|
 (GF ED/C/ !courtesy!=B,A,G,A, | B,CDE D2) G2 | G8 | z2 G4 F2 | E2 D2 E3 E | E2 c4 _B2 | %15
w: psal\- * * * * * * * *|* * * * * li-|te,|Pi- a|vo- ce di- ci-|te, pi- a|
 A2 G2 A3 A | A2 G4 F2 | D2 F2 G3 G | GEGE C2 z E | GE C2 z EAA | GAcA G4 | E2 G4 F2 | G2 E2 G4 || %23
w: vo- ce di- ci-|te, pi- a|vo- ce di- ci-|te: Ap- pa- ru- it, ap-|pa- ru- it, ap- pa- ru-|it, ap- pa- ru- it,|quem ge- nu-|it Ma- ri-|
[M:3/4] G6- | G4 z2 |[M:3/4] z6 | C4 D2 | E4 F2 | G4 F2 | E4 D2 | (CDEF G2) | (A2 GF G2) || %32
w: a.|||Sunt im-|ple- ta|quae prae-|di- xit|Ga\- * * * *|bri\- * * *|
[M:4/4] GG E2 z G C2 | z c2 A GE G2 ||[M:3/4] G2 c2 B2 | c4 c2 | c4 A2 | c4 z2 | G4 G2 | G4 F2 | %40
w: el. E- ja, e- ja,|e- ja, e- ja, e-|ja, Vir- go|De- um|ge- nu-|it,|Quem di-|vi- na|
 D4 D2 | (B,2 G,2) G2 | E4 G2 | G4 z2 | G4 G2 | G4 F2 | D4 D2 | (B,2 G,2) G2 | E4 G2 || %49
w: vo- lu-|it * cle-|men- ti-|a,|quem di-|vi- na|vo- lu-|it * cle-|men- ti-|
[M:4/4] G4 G4 | A6 A2 | G8 |] %52
w: a, cle-|men- ti-|a.|
V:2
 z4 G4- | G2 E2 E2 C2 | (CDEF GFED | EDCB, A,B,CD | E2) F2 (AB cB/A/ |[M:4/4] G2 A2 (E/F/G/E/ AG | %6
w: Pu\-|* e- ri, con-|ci\- * * * * * * *||* ni- te, * * * *|* con- ci\- * * * * *|
 F2) E2 D4 | z2 D2 ^C2 D2 | E2 GF ED=CD | EFGA G2) G2 | G2 (G,3 A, B,C | D2) E2 D4 | E6 D2 | %13
w: * ni- te,|Na- to re-|gi psal\- * * * * *|* * * * * li-|te, psal\- * * *|* li- te,|Pi- a|
 C2 A,2 B,3 B, | C2 A4 G2 | F2 D2 E3 E | F2 E2 E2 D2 | D2 (C2 D3) D | E2 z E GE C2 | z EGE C2 z E | %20
w: vo- ce di- ci-|te, pi- a|vo- ce di- ci-|te, pi- a vo-|ce di\- * ci-|te: Ap- pa- ru- it,|ap- pa- ru- it, ap-|
 E2 F2 GG,B,B, | C2 B,2 E2 D2 | D2 C2 D4 ||[M:3/4] E4 z2 | C4 D2 |[M:3/4] E4 F2 | G4 F2 | E4 D2 | %28
w: pa- ru- it, ap- pa- ru-|it, quem ge- nu-|it Ma- ri-|a.|Sunt im-|ple- ta|quae prae-|di- xit|
 (C2 B,2) A,2 | G,2 G2 F2 | E4 D2 | C4 B,2 ||[M:4/4] C2 G2 E2 z G | C E2 C2 G2 D ||[M:3/4] E4 G2 | %35
w: Ga\- * bri-|el, quae prae-|di- xit|Ga- bri-|el. E- ja, e-|ja, e- ja, e- ja,|Vir- go|
 G4 A2 | G4 F2 | G4 z2 | E4 D2 | C4 A,2 | B,4 A,2 | G,2 B,4 | C4 D2 | E4 z2 | E4 D2 | C4 A,2 | %46
w: De- um|ge- nu-|it,|Quem di-|vi- na|vo- lu-|it cle-|men- ti-|a,|quem di-|vi- na|
 B,4 A,2 | G,2 B,4 | C4 D2 ||[M:4/4] E4 E4 | F6 F2 | E8 |] %52
w: vo- lu-|it cle-|men- ti-|a, cle-|men- ti-|a.|
V:3
 z8 | g6 e2 | e2 c2 (cdef | gfed edcB | ABcd) c2 c2 |[M:4/4][K:treble-8] c2 e4 A2 | A2 c2 B2 A2 | %7
w: |Pu- e-|ri, con- ci\- * * *||* * * * * ni-|te, pu- e-|ri con- ci- ni-|
 G4 z2 d2 | ^c2 d2 e2 (gf | ed/c/ BA Bcdc | BABc dcBA | Gd c4) B2 | c2 c4 A2 | GE A4 ^G2 | %14
w: te, Na-|to re- gi psal\- *|||* * * li-|te, Pi- a|vo- ce di- ci-|
 A2 f4 d2 | (cA d4) ^c2 | (d2 B4) A2 | B2 c4 B2 | c4 z ege | c2 z e ge c2 | z2 c2 e2 dG | %21
w: te, pi- a|vo\- * * ce,|vo\- * ce|di- * ci-|te: Ap- pa- ru-|it, ap- pa- ru- it,|ap- pa- ru- it,|
 G4 c2 A2 | B2 c4 B2 ||[M:3/4] c6- | c4 z2 |[M:3/4][K:treble-8] c4 d2 | e4 f2 | g4 f2 | e4 c2 | %29
w: quem ge- nu-|it Ma- ri-|a.||Sunt im-|ple- ta|quae prae-|di- xit|
 (c3 BAB | cBcA d2) | (edec d2) ||[M:4/4] c2 z2 g2 f2 | z gc e2 c B2 ||[M:3/4] c2 c2 d2 | e4 f2 | %36
w: Ga\- * * *||bri\- * * * *|el. E- ja,|e- ja, e- ja, e-|ja, Vir- go|De- um|
 e4 d2 | e4 z2 | c4 d2 | e4 f2 | g4 f2 | e4 d2 | c4 B2 | c4 z2 | c4 d2 | e4 f2 | g4 f2 | e4 d2 | %48
w: ge- nu-|it,|Quem di-|vi- na|vo- lu-|it cle-|men- ti-|a,|quem di-|vi- na|vo- lu-|it cle-|
 c4 B2 ||[M:4/4] c8- | c8 | c8 |] %52
w: men- ti-|a|||
V:4
 z8 | z8 | z8 | C6 A,2 | A,2 F,2 (F,G,A,B, |[M:4/4] CB,A,G, A,G,F,E, | F,2) C,2 D,4 | %7
w: |||Pu- e-|ri, con- ci\- * * *||* ni- te,|
 z2 G,2 A,2 _B,2 | A,2 (G,3 F, E,D, | C,D,E,F, G,A,B,C | DCB,A, B,A,G,A, | B,2) C2 G,4 | %12
w: Na- to re-|gi psal\- * * *|||* li- te,|
 z2 C,4 D,2 | E,2 F,2 E,3 E, | A,2 F,4 G,2 | A,2 _B,2 A,3 A, | D,2 E,4 F,2 | G,2 A,2 G,3 G, | %18
w: Pi- a|vo- ce di- ci-|te, pi- a|vo- ce di- ci-|te, pi- a|vo- ce di- ci-|
 C,8- | C,4 z2 A,2 | CA, F,2 E,2 G,E, | C,2 E,2 C,2 D,2 | G,2 A,2 G,4 ||[M:3/4] C,6- | C,4 z2 | %25
w: te:|* Ap-|pa- ru- it, ap- pa- ru-|it, quem ge- nu-|it Ma- ri-|a.||
[M:3/4] z6 | z6 | C,4 D,2 | E,4 F,2 | C,4 D,2 | A,4 B,2 | C4 G,2 ||[M:4/4] C,8 | C2 A,2 C2 G,2 || %34
w: ||Sunt im-|ple- ta|quae prae-|di- xit|Ga- bri-|el.|E- ja, e- ja,|
[M:3/4] C,4 G,2 | C4 F,2 | C4 D2 | C4 z2 | C,4 G,2 | C,4 D,2 | G,4 D,2 | E,4 G,2 | A,4 G,2 | %43
w: Vir- go|De- um|ge- nu-|it,|Quem di-|vi- na|vo- lu-|it cle-|men- ti-|
 C,4 z2 | C,4 G,2 | C,4 D,2 | G,4 D,2 | E,4 G,2 | A,4 G,2 ||[M:4/4] C,4 C,4 | F,6 F,2 | C,8 |] %52
w: a,|quem di-|vi- na|vo- lu-|it cle-|men- ti-|a, cle-|men- ti-|a.|

